alura/assets/api/cursos/multiplicadores-facilitando-palestras-apresentacoes-corporativas.svg

<svg width="50" height="50" viewBox="0 0 50 50" fill="none" xmlns="http://www.w3.org/2000/svg">
<path d="M26.55 22.6101L33.26 24.6901L27.52 28.7401L27.61 35.7601L21.99 31.5601L15.34 33.8201L17.59 27.1701L13.4 21.5401L20.42 21.6301L24.47 15.9001L26.55 22.6101Z" fill="#00DFFC"/>
<path d="M41.81 19.8701L41.75 16.2501L39.34 13.4301L18.18 12.8601C15.17 12.8601 3.05997 13.0101 3.05997 16.0201L1.96997 33.8401L4.20997 40.6201L16.4 41.6501C18.32 41.7401 11.08 47.7001 12.89 47.0501L17.63 48.0401L30.24 43.5501L29.45 42.1501L33.58 42.3601L38.88 41.2901L41.58 36.7501C42.28 36.3501 42.74 21.7201 41.81 19.8501V19.8701Z" fill="#00C8E2"/>
<path d="M36.93 13.6702H7.22C4.68502 13.6702 2.63 15.7252 2.63 18.2602V36.4202C2.63 38.9552 4.68502 41.0102 7.22 41.0102H36.93C39.465 41.0102 41.52 38.9552 41.52 36.4202V18.2602C41.52 15.7252 39.465 13.6702 36.93 13.6702Z" stroke="#444444" stroke-miterlimit="10"/>
<path d="M23.41 47.6401H12.72V47.3201C12.72 44.7701 14.79 42.7001 17.34 42.7001H18.23V41.7801H8.44002C5.03002 41.7801 2.27002 39.0201 2.27002 35.6101V19.0501C2.27002 15.6401 5.03002 12.8801 8.44002 12.8801H35.78C39.19 12.8801 41.95 15.6401 41.95 19.0501V35.6101C41.95 39.0201 39.19 41.7801 35.78 41.7801H26.68V42.7001C27.72 42.7001 28.69 43.0501 29.46 43.6301" stroke="#444444" stroke-width="2.5" stroke-miterlimit="10" stroke-linecap="round"/>
<path d="M3.20996 37.1301H41.09" stroke="#444444" stroke-width="0.5" stroke-miterlimit="10"/>
<path d="M22.15 39.8101C22.6305 39.8101 23.02 39.4206 23.02 38.9401C23.02 38.4596 22.6305 38.0701 22.15 38.0701C21.6695 38.0701 21.28 38.4596 21.28 38.9401C21.28 39.4206 21.6695 39.8101 22.15 39.8101Z" stroke="#444444" stroke-width="0.5" stroke-miterlimit="10"/>
<path d="M22.15 25.6299C24.4144 25.6299 26.25 23.7943 26.25 21.5299C26.25 19.2656 24.4144 17.4299 22.15 17.4299C19.8857 17.4299 18.05 19.2656 18.05 21.5299C18.05 23.7943 19.8857 25.6299 22.15 25.6299Z" stroke="#444444" stroke-miterlimit="10" stroke-linecap="round"/>
<path d="M30.95 34.77C30.95 30.47 27 26.98 22.15 26.98C17.3 26.98 13.35 30.48 13.35 34.77" stroke="#444444" stroke-miterlimit="10" stroke-linecap="round"/>
<path d="M48.35 12.65C48.35 8.87004 45.27 5.79004 41.49 5.79004H35.1C31.32 5.79004 28.24 8.87004 28.24 12.65C28.24 15.5 29.97 18.01 32.59 19.03L31.68 20.91C31.6 21.08 31.63 21.29 31.77 21.42C31.85 21.5 31.96 21.54 32.07 21.54C32.14 21.54 32.21 21.52 32.28 21.49L35.93 19.51H41.49C45.27 19.51 48.35 16.43 48.35 12.65Z" fill="#00C8E2"/>
<path d="M48.22 11.84C48.22 8.45996 45.47 5.70996 42.09 5.70996H36.38C33 5.70996 30.25 8.45996 30.25 11.84C30.25 14.39 31.79 16.63 34.14 17.54L33.32 19.22C33.24 19.37 33.28 19.56 33.4 19.67C33.48 19.74 33.57 19.78 33.67 19.78C33.73 19.78 33.8 19.76 33.86 19.73L37.13 17.96H42.1C45.48 17.96 48.23 15.21 48.23 11.83L48.22 11.84Z" stroke="#444444" stroke-miterlimit="10" stroke-linecap="round"/>
<path d="M41.7 4.46997H35.62C31.33 4.46997 27.85 7.95997 27.85 12.24C27.85 12.9 27.94 13.55 28.09 14.17H30.72C30.49 13.57 30.35 12.92 30.35 12.24C30.35 9.32997 32.72 6.96997 35.62 6.96997H41.7C44.61 6.96997 46.97 9.33997 46.97 12.24C46.97 15.14 44.6 17.51 41.7 17.51H40.69V20.01H41.7C45.99 20.01 49.47 16.52 49.47 12.24C49.47 7.95997 45.98 4.46997 41.7 4.46997Z" fill="#444444"/>
<path d="M39.1 9.56006H43.2" stroke="#444444" stroke-width="0.5" stroke-linecap="round" stroke-linejoin="round"/>
<path d="M34.11 9.56006H36.74" stroke="#444444" stroke-width="0.5" stroke-linecap="round" stroke-linejoin="round"/>
<path d="M41.97 12.29H43.2" stroke="#444444" stroke-width="0.5" stroke-linecap="round" stroke-linejoin="round"/>
<path d="M34.11 12.29H39.72" stroke="#444444" stroke-width="0.5" stroke-linecap="round" stroke-linejoin="round"/>
<path d="M34.11 15.03H43.2" stroke="#444444" stroke-width="0.5" stroke-linecap="round" stroke-linejoin="round"/>
</svg>

<svg xmlns="http://www.w3.org/2000/svg" fill="none" viewBox="0 0 50 50"><path fill="#00DFFC" d="M26.55 22.61l6.71 2.08-5.74 4.05.09 7.02-5.62-4.2-6.65 2.26 2.25-6.65-4.19-5.63 7.02.09 4.05-5.73 2.08 6.71z"/><path fill="#00C8E2" d="M41.81 19.87l-.06-3.62-2.41-2.82-21.16-.57c-3.01 0-15.12.15-15.12 3.16L1.97 33.84l2.24 6.78 12.19 1.03c1.92.09-5.32 6.05-3.51 5.4l4.74.99 12.61-4.49-.79-1.4 4.13.21 5.3-1.07 2.7-4.54c.7-.4 1.16-15.03.23-16.9v.02z"/><path stroke="#444" stroke-miterlimit="10" d="M36.93 13.67H7.22a4.59 4.59 0 00-4.59 4.59v18.16a4.59 4.59 0 004.59 4.59h29.71a4.59 4.59 0 004.59-4.59V18.26a4.59 4.59 0 00-4.59-4.59z"/><path stroke="#444" stroke-linecap="round" stroke-miterlimit="10" stroke-width="2.5" d="M23.41 47.64H12.72v-.32c0-2.55 2.07-4.62 4.62-4.62h.89v-.92H8.44c-3.41 0-6.17-2.76-6.17-6.17V19.05c0-3.41 2.76-6.17 6.17-6.17h27.34c3.41 0 6.17 2.76 6.17 6.17v16.56c0 3.41-2.76 6.17-6.17 6.17h-9.1v.92c1.04 0 2.01.35 2.78.93"/><path stroke="#444" stroke-miterlimit="10" stroke-width=".5" d="M3.21 37.13h37.88m-18.94 2.68a.87.87 0 100-1.74.87.87 0 000 1.74z"/><path stroke="#444" stroke-linecap="round" stroke-miterlimit="10" d="M22.15 25.63a4.1 4.1 0 100-8.2 4.1 4.1 0 000 8.2zm8.8 9.14c0-4.3-3.95-7.79-8.8-7.79-4.85 0-8.8 3.5-8.8 7.79"/><path fill="#00C8E2" d="M48.35 12.65c0-3.78-3.08-6.86-6.86-6.86H35.1c-3.78 0-6.86 3.08-6.86 6.86 0 2.85 1.73 5.36 4.35 6.38l-.91 1.88c-.08.17-.05.38.09.51.08.08.19.12.3.12.07 0 .14-.02.21-.05l3.65-1.98h5.56c3.78 0 6.86-3.08 6.86-6.86z"/><path stroke="#444" stroke-linecap="round" stroke-miterlimit="10" d="M48.22 11.84c0-3.38-2.75-6.13-6.13-6.13h-5.71c-3.38 0-6.13 2.75-6.13 6.13 0 2.55 1.54 4.79 3.89 5.7l-.82 1.68a.38.38 0 00.08.45c.08.07.17.11.27.11.06 0 .13-.02.19-.05l3.27-1.77h4.97c3.38 0 6.13-2.75 6.13-6.13l-.01.01z"/><path fill="#444" d="M41.7 4.47h-6.08c-4.29 0-7.77 3.49-7.77 7.77 0 .66.09 1.31.24 1.93h2.63c-.23-.6-.37-1.25-.37-1.93 0-2.91 2.37-5.27 5.27-5.27h6.08c2.91 0 5.27 2.37 5.27 5.27 0 2.9-2.37 5.27-5.27 5.27h-1.01v2.5h1.01c4.29 0 7.77-3.49 7.77-7.77 0-4.28-3.49-7.77-7.77-7.77z"/><path stroke="#444" stroke-linecap="round" stroke-linejoin="round" stroke-width=".5" d="M39.1 9.56h4.1m-9.09 0h2.63m5.23 2.73h1.23m-9.09 0h5.61m-5.61 2.74h9.09"/></svg>
